X:9005
T:I Saw Three Ships Come Sailing In
R:Jig
C:Trad.
O:England
Z:Paul Hardy's Xmas Tunebook 2019 (see www.paulhardy.net). Creative Commons cc by-nc-sa licenced.
M:6/8
L:1/8
Q:3/8=90
K:G
D|"G"G2G "D"A2B|"G"d2B "Am"A2c|"G"B2G G2B|"D" A2F D2D|
"G"G2G "D"A2B|"G"d2B "Am"A2c|"G"B2G GAB|"D"A3 "G"G2|]
W:I saw three ships come sailing in
W:On Christmas Day, on Christmas Day;
W:I saw three ships come sailing in
W:On Christmas Day in the morning.

